X:55
%%topspace -50
T:Over the Waterfall
M:4/4
L:1/4
K:D
d/2e/2 | "D"f f g/2f/2 e | d B A3/2 e/2 | f f g/2f/2 e | f3 d/2e/2 | \
"D"f a "A7"g/2f/2e | "D"d B  A3/2 B/2 | "C"=c c B A | "G"G3 :|]
[|: F/2G/2 | "D"A A "G"B B | "A7"A/2B/2A/2G/2 "D"F F/2G/2 | "D"A d "A7"c/2d/2 e | "D"f3 F/G/ | \
"D"A A "G"B B | "A7"A/2B/2A/2G/2 "D"F F/2G/2 | "D"A A "A7"G/F/ E | "D"D3 :|]

